X:1
T:Spanish Romance D'Amour
T:Romance
T:Anonymous
C:Anonymous
%%score ( 1 2 3 )
L:1/8
Q:1/4=90
M:3/4
K:G
V:1 treble-8 nm="Guitar" snm="Guit."
V:2 treble-8 
V:3 treble-8 
V:1
 b2 b2 b2 | b2 a2 g2 | g2 f2 e2 | e2 g2 b2 | e'2 e'2 e'2 | e'2 d'2 c'2 | c'2 b2 a2 | a2 b2 c'2 | %8
 b2 c'2 b2 | ^d'2 c'2 b2 | b2 a2 g2 | g2 f2 e2 | f2 f2 f2 | f2 g2 f2 | e2 z2 z2 | z2 [GBe]4 :| %16
[K:E] (B/c/d/e/ f/=g/-g) |: g2 g2 g2 | g2 f2 e2 | e2 d2 d2 | d2 =d2 ^d2 | c'2 c'2 c'2 | %22
 c'2 d'2 c'2 | c'2 b2 b2 | b2 c'2 d'2 | e'2 e'2 e'2 | e'2 d'2 =d'2 | c'2 c'2 c'2 | c'2 b2 a2 | %29
 g2 g2 g2 | g2 a2 f2 | e2 z2 z2 | z2 (B/c/d/e/ f/=g/-g) :| %33
V:2
 (3bBG (3bBG (3bBG | (3bBG (3aBG (3gBG | (3gBG (3fBG (3eBG | (3eBG (3gBG (3bBG | %4
 (3e'BG (3e'BG (3e'BG | (3e'BG (3d'BG (3c'BG | (3c'ec (3bec (3aec | (3aec (3bec (3c'ec | %8
 (3bf^d (3c'fd (3bfd | (3^d'f^d (3c'fd (3bfd | (3bBG (3aBG (3gBG | (3gBG (3fBG (3eBG | %12
 (3fBA (3fBA (3fBA | (3fBA (3gBA (3fBA | (3eBG (3z BG (3z GE | x6 :|[K:E] x4 |: (3gBG (3gBG (3gBG | %18
 (3gBG (3fBG (3eBG | (3eAF (3dAF (3dAF | (3dAF (3=dAF (3^dAF | (3c'fd (3c'fd (3c'fd | %22
 (3c'fd (3d'fd (3c'fd | (3c'ge (3bge (3bge | (3bge (3c'ge (3d'ge | (3e'ge (3e'ge (3e'ge | %26
 (3e'ge (3d'ge (3=d'ge | (3c'ec (3c'ec (3c'ec | (3c'ec (3bec (3aec | (3gBG (3gBG (3gBG | %30
 (3gdA (3adA (3fdA | (3eBG (3z BG (3z GE | x6 :| %33
V:3
 E,6 | E,6 | E,6 | E,6 | E,6 | E,6 | A,6 | A,6 | B,6 | B,6 | E,6 | E,6 | B,6 | ^D6 | E2 B,2 G,2 | %15
 E,6 :|[K:E] x4 |: E,6 | E,6 | F,6 | F,6 | B,6 | B,6 | E,6 | E,6 | E,6 | E,6 | A,6 | A,6 | E,6 | %30
 B,6 | E2 B,2 G,2 | E,6 :| %33

